svg/file/folder_star_fill.svg

<?xml version="1.0" encoding="UTF-8"?>
<svg width="24px" height="24px" viewBox="0 0 24 24" version="1.1" xmlns="http://www.w3.org/2000/svg" xmlns:xlink="http://www.w3.org/1999/xlink">
    <title>folder_star_fill</title>
    <g id="页面-1" stroke="none" stroke-width="1" fill="none" fill-rule="evenodd">
        <g id="File" transform="translate(-144.000000, -432.000000)">
            <g id="folder_star_fill" transform="translate(144.000000, 432.000000)">
                 <path d="M24,0 L24,24 L0,24 L0,0 L24,0 Z M12.5934901,23.257841 L12.5819402,23.2595131 L12.5108777,23.2950439 L12.4918791,23.2987469 L12.4918791,23.2987469 L12.4767152,23.2950439 L12.4056548,23.2595131 C12.3958229,23.2563662 12.3870493,23.2590235 12.3821421,23.2649074 L12.3780323,23.275831 L12.360941,23.7031097 L12.3658947,23.7234994 L12.3769048,23.7357139 L12.4804777,23.8096931 L12.4953491,23.8136134 L12.4953491,23.8136134 L12.5071152,23.8096931 L12.6106902,23.7357139 L12.6232938,23.7196733 L12.6232938,23.7196733 L12.6266527,23.7031097 L12.609561,23.275831 C12.6075724,23.2657013 12.6010112,23.2592993 12.5934901,23.257841 L12.5934901,23.257841 Z M12.8583906,23.1452862 L12.8445485,23.1473072 L12.6598443,23.2396597 L12.6498822,23.2499052 L12.6498822,23.2499052 L12.6471943,23.2611114 L12.6650943,23.6906389 L12.6699349,23.7034178 L12.6699349,23.7034178 L12.678386,23.7104931 L12.8793402,23.8032389 C12.8914285,23.8068999 12.9022333,23.8029875 12.9078286,23.7952264 L12.9118235,23.7811639 L12.8776777,23.1665331 C12.8752882,23.1545897 12.8674102,23.1470016 12.8583906,23.1452862 L12.8583906,23.1452862 Z M12.1430473,23.1473072 C12.1332178,23.1423925 12.1221763,23.1452606 12.1156365,23.1525954 L12.1099173,23.1665331 L12.0757714,23.7811639 C12.0751323,23.7926639 12.0828099,23.8018602 12.0926481,23.8045676 L12.108256,23.8032389 L12.3092106,23.7104931 L12.3186497,23.7024347 L12.3186497,23.7024347 L12.3225043,23.6906389 L12.340401,23.2611114 L12.337245,23.2485176 L12.337245,23.2485176 L12.3277531,23.2396597 L12.1430473,23.1473072 Z" id="MingCute" fill-rule="nonzero"></path>
                <path d="M4,3 C2.89543,3 2,3.89543 2,5 L2,19 C2,20.1046 2.89543,21 4,21 L20,21 C21.1046,21 22,20.1046 22,19 L22,7.5 C22,6.39543 21.1046,5.5 20,5.5 L12.4806,5.5 L11.0811,3.75061 C10.7016,3.27618 10.1269,3 9.51938,3 L4,3 Z M12.3457,10.1987 C12.1914,9.93377 11.8087,9.93377 11.6544,10.1987 L10.76,11.7343 L9.02319,12.1104 C8.72357,12.1753 8.60531,12.5392 8.80957,12.7678 L9.99362,14.093 L9.81461,15.861 C9.78372,16.166 10.0933,16.391 10.3739,16.2673 L12.0001,15.5507 L13.6262,16.2673 C13.9068,16.391 14.2164,16.166 14.1855,15.861 L14.0065,14.093 L15.1905,12.7678 C15.3948,12.5392 15.2765,12.1753 14.9769,12.1104 L13.2401,11.7343 L12.3457,10.1987 Z" id="形状" fill="#09244B"></path>
            </g>
        </g>
    </g>
</svg>

<svg xmlns="http://www.w3.org/2000/svg" width="24" height="24"><g fill="none" fill-rule="evenodd"><path d="M24 0v24H0V0h24ZM12.593 23.258l-.011.002-.071.035-.02.004-.014-.004-.071-.035c-.01-.004-.019-.001-.024.005l-.004.01-.017.428.005.02.01.013.104.074.015.004.012-.004.104-.074.012-.016.004-.017-.017-.427c-.002-.01-.009-.017-.017-.018Zm.265-.113-.013.002-.185.093-.01.01-.003.011.018.43.005.012.008.007.201.093c.012.004.023 0 .029-.008l.004-.014-.034-.614c-.003-.012-.01-.02-.02-.022Zm-.715.002a.023.023 0 0 0-.027.006l-.006.014-.034.614c0 .012.007.02.017.024l.015-.002.201-.093.01-.008.004-.011.017-.43-.003-.012-.01-.01-.184-.092Z"/><path fill="#09244B" d="M4 3a2 2 0 0 0-2 2v14a2 2 0 0 0 2 2h16a2 2 0 0 0 2-2V7.5a2 2 0 0 0-2-2h-7.52l-1.399-1.75A2 2 0 0 0 9.52 3H4Zm8.346 7.199a.4.4 0 0 0-.692 0l-.894 1.535-1.737.376a.4.4 0 0 0-.213.658l1.184 1.325-.18 1.768a.4.4 0 0 0 .56.406L12 15.551l1.626.716a.4.4 0 0 0 .56-.406l-.18-1.768 1.185-1.325a.4.4 0 0 0-.214-.658l-1.737-.376-.894-1.535Z"/></g></svg>
